icons/default/Hookito.svg

<path
	d="M0 2.16949C0 0.971316 0.980261 0 2.18947 0H10.8105C12.0197 0 13 0.971315 13 2.16949V15.3243C13 15.921 12.3733 16.3147 11.8287 16.0601L6.5 13.5696L1.17132 16.0601C0.626703 16.3147 0 15.921 0 15.3243V2.16949Z"
	fill="#090909" />
<path
	d="M2.64062 3.91669C2.64062 3.76692 2.76316 3.64551 2.91431 3.64551H4.875V6.27842L8.125 6.27842V3.64551H10.0857C10.2368 3.64551 10.3594 3.76692 10.3594 3.91669V10.868C10.3594 11.0178 10.2368 11.1392 10.0857 11.1392H8.125V8.50626L4.875 8.50626V11.1392H2.91431C2.76316 11.1392 2.64062 11.0178 2.64062 10.868V3.91669Z"
	fill="url(#paint0_linear)" />
<defs>
	<linearGradient id="paint0_linear" x1="6.5" y1="3.64551" x2="6.5" y2="11.1392" gradientUnits="userSpaceOnUse">
		<stop stop-color="#FDAABE" />
		<stop offset="0.364583" stop-color="#FCBABF" />
		<stop offset="1" stop-color="#FBD5C0" />
		<stop offset="1" stop-color="#FED8C3" />
	</linearGradient>
</defs>

<path d="M0 2.17C0 .97.98 0 2.19 0h8.62C12.02 0 13 .971 13 2.17v13.154a.82.82 0 0 1-1.171.736L6.5 13.57l-5.329 2.49A.82.82 0 0 1 0 15.324V2.17Z" fill="#090909"/><path d="M2.64 3.917c0-.15.123-.271.274-.271h1.961v2.632h3.25V3.646h1.96c.152 0 .274.12.274.27v6.952c0 .15-.122.271-.273.271H8.125V8.506h-3.25v2.633h-1.96a.272.272 0 0 1-.274-.271V3.917Z" fill="url(#a)"/><defs><linearGradient id="a" x1="6.5" y1="3.646" x2="6.5" y2="11.139" gradientUnits="userSpaceOnUse"><stop stop-color="#FDAABE"/><stop offset=".365" stop-color="#FCBABF"/><stop offset="1" stop-color="#FBD5C0"/><stop offset="1" stop-color="#FED8C3"/></linearGradient></defs>
